X: 100
P: No. C.
M: 6/8
L: 1/8
K: Gdor
V: 1
|:\
(G/A/B)G dBG | GBG gBG | f2f fga | f3 f3 :|
f/g/ |:\
agf gfe | fed cde | fed gfe | fed cAF |\
(G/A/B)G dBG | GBG dBG | f2f fga | f3 f3 :|
|:\
(d/e/f)f fg/f/e | f(g/f/e/d/) cAF | g2g ga/g/f | gde f2g |\
agf edc | (d/e/f)d cAF | {e}f2c (d/e/f)d | B3 G3 :|
V: 2 clef=bass middle=d
|:\
g3 b3 | g3 b3 | d'3 z3 | dfa d3 :|
z |:\
d2z d2z | d2z c2z | d2z c2z | B2z A2z |\
|:\
b2z c'2z | a2b f2z | B3 b3 | B3 b3 |\
f3 a3 | b3 f3 | d2z d2z | gBd G3 :|

